X:18980
T:Xiraldilla (CT 111)
R:Xiraldilla
C:Tradicional
S:Música Tradicional Asturiana, (C) Tello & Tito. Asturies, 2001.
S:http://pagina.de/MusTradAst <telloytito@asturies.org>
N:Xiraldilla, transcrita en Murias, ayuntamiento de Quirós.
O:Murias (Quirós)
A:Asturies
Z:Cancioneru de Torner 111
M:2/4
L:1/8
Q:1/4=168
W:Una palomita
W:blanca como la nieve
W:ayer tarde bajó al prado:
W:bañar se quiere.
W:
W:Lleva las alas doradas,
W:cara de leche,
W:lleva las alas doradas,
W:cara de leche,
W:ojos de olivo.
W:
W:No bajes, paloma, al prado
W:vente conmigo.
W:no bajes, paloma, al prado
W:que no te olvido.
K:C
|d2 d2|d2 ee|f2 e2|d2 ee|f2 e2|d2 z2|
c2 B2|d2 dc|B2 A2|G2 AA|B2 A2|G2 z2|
B2 c2|d2 dc|B2 A2|d2 dc|B2 A2|G2 z2|
d2 d2|d2 ee|f2 e2|d2 ee|f2 e2|d2 ee|f2 e2|d2 z2|
c2 B2|d2 dc|B2 A2|G2 AA|B2 A2|G2 z2|
B2 c2|d2 dc|B2 A2|d2 dc|B2 A2|G2 z2||


